X: 35669
T: Sailor's Rest, The
R: hornpipe
M: 4/4
K: Gmajor
|:(3gag fg (3BcB AB|GBdg gfgd|(3efg dB cBAG|cAeA gA f2|
(3gag fg (3BcB AB|GBdg gfgd|(3efg dB cAFA|1 G2 G2 G2 g2:|2 G2 G2 G2 AG||
|:FGAB cedc|BGBd gbag|(3efg dB cBAG|c2 A2 A2 AG|
FGAB cedc|BGBd gbag|(3efg dB cAFA|1 G2 G2 G2 AG:|2 G2 G2 G4||

